X:1
T:Records
T:Records
T:Charles Hutchinson Gabriel
T:Eleanor W. Long, 1908
T:Public Domain Courtesy of the Cyber Hymnal™
T:Public Domain Courtesy of the Cyber Hymnal™
C:Charles Hutchinson Gabriel
Z:Public Domain
Z:Courtesy of the Cyber Hymnal™
%%score ( 1 2 ) ( 3 4 )
L:1/8
Q:1/4=110
M:4/4
K:Bb
V:1 treble 
V:2 treble 
V:3 bass 
V:4 bass 
V:1
 [DF][DF] | [DB]3 [Dc] [DB]2 [EG]2 | [DB]3 [CF] [B,F]2 [B,D][CE] | [DF]2 [DF][DF] [DG]2 [DF][B,D] | %4
w: 1.~There will|come a day, some-|time, some- time, When the|books will be o- pened in|
w: 2.~In that|re- cord there, some-|where, some- where, You are|writ- ing your re- cord each|
w: 3.~There’s “a-|no- ther book,” some-|where, some- where; ’Tis the|Lamb’s book of life, pure and|
 [A,C]6 [B,D][CE] | [DF]2 [DB]2 [Fd]2 [DB][DB] | [FB]2 [FB]2 [EG]2 [FA][FB] | %7
w: Heav’n; When the|Judge will sit on the|great white throne, And the|
w: day; And what-|e’er it be, whe- ther|dark or fair, As ’tis|
w: fair; And His|blood a- lone can for|sin a- tone, And pre-|
 [Fc]2 [=Ec]2 [_Ec]2 [DB][DB] | [CA]2 [=EG]2 !fermata!F2 [_EG][EA] | [DB]2 [DB]2 [FB]2 [DB]2 | %10
w: sons of men will stand|forth a- lone, To re-|ceive the sen- tence|
w: writ- ten there, it will|stand up there, In the|re- cord book for|
w: sent you fault- less be-|fore the throne, If your|name’s found writ- ten|
 [Fd]6 [B,D][^C=E] | [DF]3 [DF] [CF]2 [Ec]2 | [DB]6 z2 ||"^Refrain" [DB] [DB]3 [DB] [DB]3 | %14
w: giv’n, To re-|ceive the sen- tence|giv’n.||
w: aye, In the|re- cord book for|aye.|Re- cords, re- cords,|
w: there, If your|name’s found writ- ten|there.||
 [EB][EB]- [EB]4 [EG][EG] | [DF]3 [DF] [CF]2 [EF]2 | ([DF]6 G/A/B/c/) | [Fd] [Fd]3 [^Fd] [Fd]3 | %18
w: ||||
w: re- cords, * We are|writ- ing ev- ery|day! * * * *|Writ- ing, writ- ing,|
w: ||||
 [Gd][Gd]- [Gd]4 [DB][=EB] | [Fc]3 [Fc] [=Ec]2 [Ec]2 | [Ec]6 z2 | [Fd]2 [DB]2 [Ge]2 [Fd]2 | %22
w: ||||
w: writ- ing, * As we|tra- vel life’s high-|way!|Glo- ry! glo- ry!|
w: ||||
 ([Fd]3 [Ec]) [DB]2 [FB][FB] | [EB]3 [Ec] [EB]2 [EG]2 | [DF]6 [DF][DF] | %25
w: |||
w: glo- * ry! We shall|dwell be- yond earth’s|strife, If our|
w: |||
 [EG]2 [GB]2 [FA]2 [EG][EG] | [DF]2 [DB]2 !fermata![Fd]2 [B,D][^C=E] | [DF]3 [DF] [CF]2 [Ec]2 | %28
w: |||
w: re- cord’s clear, and our|names ap- pear In the|Lamb’s great book of|
w: |||
 [DB]6 |] %29
w: |
w: life.|
w: |
V:2
 x2 | x8 | x8 | x8 | x8 | x8 | x8 | x8 | x4 F2 x2 | x8 | x8 | x8 | x8 || x8 | x8 | x8 | x8 | x8 | %18
 x8 | x8 | x8 | x8 | x8 | x8 | x8 | x8 | x8 | x8 | x6 |] %29
V:3
 [B,,B,][B,,B,] | [B,,F,]3 [B,,^F,] [B,,G,]2 [B,,B,]2 | [B,,F,]3 [B,,E,] [B,,D,]2 [B,,F,][B,,F,] | %3
 [B,,B,]2 [B,,B,][B,,B,] [B,,B,]2 [B,,B,][B,,F,] | F,6 [B,,F,][B,,F,] | %5
 [B,,B,]2 [B,,F,]2 [B,,B,]2 [B,,B,][B,,B,] | [D,B,]2 [D,B,]2 [E,B,]2 [E,C][D,B,] | %7
 [C,A,]2 [B,,G,]2 [A,,F,]2 [B,,F,][B,,F,] | [C,F,]2 [C,B,]2 !fermata![F,A,]2 [F,B,][F,C] | %9
 [B,,B,]2 [B,,F,]2 [D,B,]2 [F,B,]2 | B,6 [G,B,][_G,B,] | [F,B,]3 [F,B,] [F,A,]2 [F,A,]2 | %12
 [B,,B,]6 z2 || [G,B,] [G,B,]3 [F,_A,] [F,A,]3 | [E,G,][E,G,]- [E,G,]4 [E,B,][E,B,] | %15
 [F,B,]3 [F,B,] [F,A,]2 [F,C]2 | [B,,B,]6 z2 | B, B,3 [A,C] [A,C]3 | %18
 [G,B,][G,B,]- [G,B,]4 [G,B,][G,D] | [A,C]3 [A,C] [G,B,]2 [G,B,]2 | [F,A,]6 z2 | %21
 [B,,B,]2 [B,,F,]2 [B,,B,]2 [B,,B,]2 | [B,,B,]4 [B,,F,]2 [D,B,][D,B,] | %23
 [E,G,]3 [E,G,] [E,G,]2 [E,B,]2 | [B,,B,]6 [B,,B,][B,,B,] | [E,B,]2 [E,B,]2 [E,B,]2 [E,B,][E,B,] | %26
 [B,,B,]2 [B,,F,]2 !fermata![B,,B,]2 [G,B,][_G,B,] | [F,B,]3 [F,B,] [F,A,]2 F,2 | [B,,F,]6 |] %29
V:4
 x2 | x8 | x8 | x8 | F,6 x2 | x8 | x8 | x8 | x8 | x8 | B,6 x2 | x8 | x8 || x8 | x8 | x8 | x8 | %17
 B, B,3 x4 | x8 | x8 | x8 | x8 | x8 | x8 | x8 | x8 | x8 | x6 F,2 | x6 |] %29

